64x64/apps/amor.svg

<svg xmlns="http://www.w3.org/2000/svg" width="64" height="64" version="1">
 <rect style="fill:#fecd38" width="56" height="56" x="4" y="4" rx="28" ry="28"/>
 <path style="opacity:0.1;fill:#f4f4f7" d="M 32 4 C 16.488443 4 4 16.488 4 32 C 4 32.113556 4.0112848 32.224032 4.0175781 32.335938 C 4.3691112 17.134181 16.711164 5 32 5 C 47.288835 5 59.630889 17.134181 59.982422 32.335938 C 59.988693 32.224113 60 32.113448 60 32 C 60 16.488 47.511556 4 32 4 z"/>
 <g style="fill:#17191e" transform="matrix(1.4,0,0,1.4,-75.874,4.5156)">
  <circle cx="69.91" cy="12.489" r="2.857"/>
  <circle cx="84.196" cy="12.489" r="2.857"/>
  <path d="m 69.444,24.355 a 8.7947,10.554 0 0 0 7.6094,5.2768 8.7947,10.554 0 0 0 7.6026,-5.2768 l -1.0684,0 a 8.7947,10.554 0 0 1 -6.5342,3.5179 8.7947,10.554 0 0 1 -6.5376,-3.5179 l -1.0718,0 z"/>
 </g>
 <path style="opacity:0.2" d="M 4.0488281 33 C 4.0490359 33.005918 4.0505699 33.011661 4.0507812 33.017578 C 4.0510045 33.011726 4.0505744 33.005856 4.0507812 33 L 4.0488281 33 z M 4.0507812 33.017578 C 4.0382711 33.34552 4 33.667926 4 34 C 4 34.224037 4.0123968 34.445222 4.0175781 34.667969 C 4.0296765 34.451306 4.0424994 34.234678 4.0507812 34.017578 C 4.0505699 34.011661 4.0490359 34.005918 4.0488281 34 L 4.0507812 34 C 4.0505744 34.005856 4.0510045 34.011726 4.0507812 34.017578 C 4.5877909 49.051232 16.83157 61 32 61 C 47.174 61 59.421219 49.042 59.949219 34 C 59.957015 34.222266 59.969975 34.443039 59.982422 34.664062 C 59.987543 34.44261 60 34.222728 60 34 C 60 33.66232 59.960959 33.33472 59.949219 33 C 59.421219 48.042 47.174 60 32 60 C 16.83157 60 4.5877909 48.051232 4.0507812 33.017578 z"/>
</svg>

<svg xmlns="http://www.w3.org/2000/svg" width="64" height="64" version="1"><rect style="fill:#fecd38" width="56" height="56" x="4" y="4" rx="28" ry="28"/><path style="opacity:.1;fill:#f4f4f7" d="M32 4C16.488 4 4 16.488 4 32c0 .114.011.224.018.336C4.369 17.134 16.71 5 32 5s27.63 12.134 27.982 27.336c.007-.112.018-.223.018-.336C60 16.488 47.512 4 32 4z"/><g style="fill:#17191e" transform="matrix(1.4 0 0 1.4 -75.874 4.516)"><circle cx="69.91" cy="12.489" r="2.857"/><circle cx="84.196" cy="12.489" r="2.857"/><path d="M69.444 24.355a8.795 10.554 0 0 0 7.61 5.277 8.795 10.554 0 0 0 7.602-5.277h-1.068a8.795 10.554 0 0 1-6.535 3.518 8.795 10.554 0 0 1-6.537-3.518h-1.072z"/></g><path style="opacity:.2" d="m4.049 33 .002.018V33h-.002zm.002.018c-.013.328-.051.65-.051.982 0 .224.012.445.018.668.012-.217.024-.433.033-.65L4.049 34h.002v.018C4.588 49.05 16.83 61 32 61c15.174 0 27.421-11.958 27.95-27 .007.222.02.443.032.664.006-.221.018-.441.018-.664 0-.338-.039-.665-.05-1C59.42 48.042 47.173 60 32 60 16.832 60 4.588 48.051 4.05 33.018z"/></svg>
